X:1
T: Miss Stewart of Garth
C:
R:Reel
Q: 232
K:Dm
M:4/4
L:1/8
|:F|D2 DE FG AF|Ec Gc EC CE|D2 DE FG AF|Dd fe d3F|
D2 DE FG AF|Ec Gc EC CE|D2 DE FG AF|Dd fe d3f|
da fg af df|eg cg ec ge|da fg af df|ec ge d3f|
da fg af df|eg cg ec ge|fd e^c de fd|cA GE D3:|
